source/images/project/superflow/logo.svg

<svg width="321" height="55" viewBox="0 0 321 55" fill="none" xmlns="http://www.w3.org/2000/svg">
<path d="M18.824 18.2663C11.464 16.3463 9.736 14.4263 9.736 10.8423C9.736 7.64231 13 5.53031 18.184 5.53031C24.008 5.53031 28.616 8.73031 28.872 15.8983L35.336 11.8663C34.312 4.63431 27.08 0.218311 18.888 0.218311C8.52 0.218311 2.312 5.08231 2.312 12.3143C2.312 18.8423 6.024 22.8103 16.84 25.4983C24.2 27.3543 26.76 29.2103 26.76 33.2423C26.76 37.4663 24.136 39.8983 18.504 39.8983C12.232 39.8983 7.048 36.1863 7.112 28.1223L0.456 32.4103C1.16 40.4103 8.328 45.0823 17.8 45.0823C28.552 45.0823 34.44 39.7703 34.44 32.0263C34.44 23.5783 28.616 20.8263 18.824 18.2663ZM63.7235 11.8663V31.0023C63.6595 36.4423 61.4195 39.8343 56.4915 39.8343C52.3315 39.8343 50.1555 37.7223 50.1555 32.9863V11.8663H42.5395V34.0103C42.5395 41.6903 46.6995 45.0823 53.7395 45.0823C59.1795 45.0823 62.1875 42.6503 63.7235 37.7863V44.5703H71.3395V11.8663H63.7235ZM98.208 10.9063C92.896 10.9063 89.888 13.4023 88.352 18.0743V11.8663H80.736V54.1703H88.352V37.8503C89.888 42.5223 92.896 45.0183 98.208 45.0183C106.528 45.0183 112.48 38.2343 112.48 27.9943C112.48 17.6903 106.528 10.9063 98.208 10.9063ZM96.352 40.1543C91.488 40.1543 88.16 35.4183 88.16 27.9943C88.16 20.5063 91.488 15.8343 96.352 15.8343C101.216 15.8343 104.352 20.5063 104.352 27.9943C104.352 35.4183 101.216 40.1543 96.352 40.1543ZM143.026 33.1143C142.066 38.6823 138.418 40.1543 135.026 40.1543C129.586 40.1543 126.194 35.9943 125.874 28.9543H148.53V28.5703C148.722 18.0103 143.282 10.9063 133.746 10.9063C124.274 10.9063 118.002 17.6903 118.002 27.9943C118.002 38.0423 124.722 45.0183 134.386 45.0183C141.746 45.0183 146.354 42.3943 148.978 36.8263L143.026 33.1143ZM133.746 15.8343C138.29 15.8343 140.018 18.6503 140.338 25.1143H126.002C126.578 19.2903 129.01 15.8343 133.746 15.8343ZM171.785 10.9063C167.689 10.9063 164.617 13.9143 163.721 21.7863L163.913 11.8663H156.297V44.5703H163.913V30.0423C163.913 19.9303 166.921 16.0903 169.801 16.0903C172.233 16.0903 173.897 17.2423 173.513 26.2023L180.169 22.1703C180.809 14.5543 177.097 10.9063 171.785 10.9063ZM216.434 6.55431V1.11431H186.61V44.5703H194.354V25.2423H214.642V19.8023H194.354V6.55431H216.434ZM223.111 44.5703H230.663V1.11431H223.111V44.5703ZM254.447 45.0183C264.431 45.0183 270.767 38.3623 270.767 27.9943C270.767 17.5623 264.431 10.9063 254.447 10.9063C244.463 10.9063 238.127 17.5623 238.127 27.9943C238.127 38.3623 244.463 45.0183 254.447 45.0183ZM254.447 40.1543C249.135 40.1543 246.191 35.7383 246.191 27.9943C246.191 20.1863 249.135 15.8343 254.447 15.8343C259.759 15.8343 262.703 20.1863 262.703 27.9943C262.703 35.7383 259.759 40.1543 254.447 40.1543ZM312.875 11.8663L307.883 31.8343C307.307 34.3303 306.923 36.8263 306.667 39.3223C306.475 36.8903 306.155 34.3943 305.643 31.8983L301.483 11.8663H292.587L288.555 31.4503C287.979 34.2023 287.659 37.0183 287.403 39.7703C287.083 36.9543 286.699 34.2023 285.995 31.3863L281.195 11.8663H273.707L282.603 44.5703H291.563L296.171 22.9383C296.619 20.6983 296.875 18.4583 297.067 16.2823C297.195 18.5223 297.515 20.7623 297.963 23.0023L302.507 44.5703H311.467L320.363 11.8663H312.875Z" fill="black"/>
</svg>

<svg fill="none" height="55" viewBox="0 0 321 55" width="321" xmlns="http://www.w3.org/2000/svg"><path d="m18.824 18.2663c-7.36-1.92-9.088-3.84-9.088-7.424 0-3.19999 3.264-5.31199 8.448-5.31199 5.824 0 10.432 3.2 10.688 10.36799l6.464-4.032c-1.024-7.23199-8.256-11.647989-16.448-11.647989-10.368 0-16.576 4.863999-16.576 12.095989 0 6.528 3.712 10.496 14.528 13.184 7.36 1.856 9.92 3.712 9.92 7.744 0 4.224-2.624 6.656-8.256 6.656-6.272 0-11.456-3.712-11.392-11.776l-6.656 4.288c.704 8 7.872 12.672 17.344 12.672 10.752 0 16.64-5.312 16.64-13.056 0-8.448-5.824-11.2-15.616-13.76zm44.8995-6.4v19.136c-.064 5.44-2.304 8.832-7.232 8.832-4.16 0-6.336-2.112-6.336-6.848v-21.12h-7.616v22.144c0 7.68 4.16 11.072 11.2 11.072 5.44 0 8.448-2.432 9.984-7.296v6.784h7.616v-32.704zm34.4845-.96c-5.312 0-8.32 2.496-9.856 7.168v-6.208h-7.616v42.304h7.616v-16.32c1.536 4.672 4.544 7.168 9.856 7.168 8.32 0 14.272-6.784 14.272-17.024 0-10.304-5.952-17.088-14.272-17.088zm-1.856 29.248c-4.864 0-8.192-4.736-8.192-12.16 0-7.488 3.328-12.16 8.192-12.16s8 4.672 8 12.16c0 7.424-3.136 12.16-8 12.16zm46.674-7.04c-.96 5.568-4.608 7.04-8 7.04-5.44 0-8.832-4.16-9.152-11.2h22.656v-.384c.192-10.56-5.248-17.664-14.784-17.664-9.472 0-15.744 6.784-15.744 17.088 0 10.048 6.72 17.024 16.384 17.024 7.36 0 11.968-2.624 14.592-8.192zm-9.28-17.28c4.544 0 6.272 2.816 6.592 9.28h-14.336c.576-5.824 3.008-9.28 7.744-9.28zm38.039-4.928c-4.096 0-7.168 3.008-8.064 10.88l.192-9.92h-7.616v32.704h7.616v-14.528c0-10.112 3.008-13.952 5.888-13.952 2.432 0 4.096 1.152 3.712 10.112l6.656-4.032c.64-7.616-3.072-11.264-8.384-11.264zm44.649-4.35199v-5.44h-29.824v43.45599h7.744v-19.328h20.288v-5.44h-20.288v-13.24799zm6.677 38.01599h7.552v-43.45599h-7.552zm31.336.448c9.984 0 16.32-6.656 16.32-17.024 0-10.432-6.336-17.088-16.32-17.088s-16.32 6.656-16.32 17.088c0 10.368 6.336 17.024 16.32 17.024zm0-4.864c-5.312 0-8.256-4.416-8.256-12.16 0-7.808 2.944-12.16 8.256-12.16s8.256 4.352 8.256 12.16c0 7.744-2.944 12.16-8.256 12.16zm58.428-28.288-4.992 19.968c-.576 2.496-.96 4.992-1.216 7.488-.192-2.432-.512-4.928-1.024-7.424l-4.16-20.032h-8.896l-4.032 19.584c-.576 2.752-.896 5.568-1.152 8.32-.32-2.816-.704-5.568-1.408-8.384l-4.8-19.52h-7.488l8.896 32.704h8.96l4.608-21.632c.448-2.24.704-4.48.896-6.656.128 2.24.448 4.48.896 6.72l4.544 21.568h8.96l8.896-32.704z" fill="#000"/></svg>
